**harm	**harte	**timestamp	**phrase	**leadinstrument	**kern
*M4/4	*M4/4	*	*	*	*
*A-:	*A-:	*	*	*	*A-:
1r;	N	0	.	r	1r;
=1	=1	=1	=1	=1	=1
*>A_intro	*>A_intro	*>A_intro	*>A_intro	*>A_intro	*>A_intro
1I	A-:maj	0.186	newline	synthesizer	1A- 1cc 1ee-
=2	=2	=2	=2	=2	=2
1IVc	D-:maj(9)/5	2.24	.	synthesizer	1d- 1f 1A-
=3	=3	=3	=3	=3	=3
1I	A-:maj	4.294	.	synthesizer	1A- 1cc 1ee-
=4	=4	=4	=4	=4	=4
1IVc	D-:maj(9)/5	6.348	.	synthesizer	1d- 1f 1A-
=5	=5	=5	=5	=5	=5
*>B_chorus	*>B_chorus	*>B_chorus	*>B_chorus	*>B_chorus	*>B_chorus
2I	A-:maj	8.402	newline	voice	2A- 2cc 2ee-
2vi7	F:min7	9.373	.	voice	2F 2a- 2cc 2ee-
=6	=6	=6	=6	=6	=6
2IV	D-:maj	10.343	.	voice	2D- 2f 2a-
2Ib	A-:maj/3	11.313	.	voice	2a- 2C 2ee-
=7	=7	=7	=7	=7	=7
2ii7	B-:min7	12.284	.	voice	2B- 2dd- 2ff 2aa-
2Ib	A-:maj/3	13.254	.	voice	2a- 2C 2ee-
=8	=8	=8	=8	=8	=8
2IV	D-:maj	14.225	.	voice	2D- 2f 2a-
2V	E-:maj	15.195	.	voice	2E- 2g 2b-
=9	=9	=9	=9	=9	=9
2I	A-:maj	16.166	newline	voice	2A- 2cc 2ee-
2vi7	F:min7	17.154	.	voice	2F 2a- 2cc 2ee-
=10	=10	=10	=10	=10	=10
2IV	D-:maj	18.143	.	voice	2D- 2f 2a-
2Ib	A-:maj/3	19.131	.	voice	2a- 2C 2ee-
=11	=11	=11	=11	=11	=11
2ii7	B-:min7	20.119	.	voice	2B- 2dd- 2ff 2aa-
2Ib	A-:maj/3	21.108	.	voice	2a- 2C 2ee-
=12	=12	=12	=12	=12	=12
2IV	D-:maj	22.096	.	voice	2D- 2f 2a-
2V	E-:maj	23.085	.	voice	2E- 2g 2b-
=13	=13	=13	=13	=13	=13
1ii7	B-:min7	24.073	newline	voice	1B- 1dd- 1ff 1aa-
=14	=14	=14	=14	=14	=14
1V7	E-:7	26.014	.	voice	1E- 1g 1b- 1dd-
=15	=15	=15	=15	=15	=15
1ii7	B-:min7	27.955	.	voice	1B- 1dd- 1ff 1aa-
=16	=16	=16	=16	=16	=16
1V7	E-:7	29.896	.	voice	1E- 1g 1b- 1dd-
=17	=17	=17	=17	=17	=17
1ii7	B-:min7	31.837	.	voice	1B- 1dd- 1ff 1aa-
=18	=18	=18	=18	=18	=18
1V7	E-:7	33.778	.	voice	1E- 1g 1b- 1dd-
=19	=19	=19	=19	=19	=19
4.ii7	B-:min7	35.719	newline	voice	4B- 4dd- 4ff 4aa-
4.Ib	A-:maj/3	36.702	.	voice	4a- 4C 4ee-
4IV	D-:maj	37.194	.	voice	4D- 4f 4a-
=20	=20	=20	=20	=20	=20
1II7b	B-:7/3	37.686	.	voice	1b- 1D 1ff 1aa-
=21	=21	=21	=21	=21	=21
1V7	E-:sus4(b7)	39.653	.	voice	1E- 1g 1b- 1dd-
=22	=22	=22	=22	=22	=22
1V7	E-:7	41.62	.	voice	1E- 1g 1b- 1dd-
=23	=23	=23	=23	=23	=23
*>B_chorus	*>B_chorus	*>B_chorus	*>B_chorus	*>B_chorus	*>B_chorus
2I	A-:maj	43.587	newline	voice	2A- 2cc 2ee-
2vi7	F:min7	44.575	.	voice	2F 2a- 2cc 2ee-
=24	=24	=24	=24	=24	=24
2IV	D-:maj	45.564	.	voice	2D- 2f 2a-
2Ib	A-:maj/3	46.552	.	voice	2a- 2C 2ee-
=25	=25	=25	=25	=25	=25
2ii7	B-:min7	47.54	.	voice	2B- 2dd- 2ff 2aa-
2Ib	A-:maj/3	48.529	.	voice	2a- 2C 2ee-
=26	=26	=26	=26	=26	=26
2IV	D-:maj	49.517	.	voice	2D- 2f 2a-
2V	E-:maj	50.506	.	voice	2E- 2g 2b-
=27	=27	=27	=27	=27	=27
2I	A-:maj	51.494	newline	voice	2A- 2cc 2ee-
2vi7	F:min7	52.491	.	voice	2F 2a- 2cc 2ee-
=28	=28	=28	=28	=28	=28
2IV	D-:maj	53.488	.	voice	2D- 2f 2a-
2Ib	A-:maj/3	54.485	.	voice	2a- 2C 2ee-
=29	=29	=29	=29	=29	=29
2ii7	B-:min7	55.482	.	voice	2B- 2dd- 2ff 2aa-
2Ib	A-:maj/3	56.479	.	voice	2a- 2C 2ee-
=30	=30	=30	=30	=30	=30
2IV	D-:maj	57.476	.	voice	2D- 2f 2a-
2V	E-:maj	58.473	.	voice	2E- 2g 2b-
=31	=31	=31	=31	=31	=31
1ii7	B-:min7	59.47	newline	voice	1B- 1dd- 1ff 1aa-
=32	=32	=32	=32	=32	=32
1V7	E-:7	61.44	.	voice	1E- 1g 1b- 1dd-
=33	=33	=33	=33	=33	=33
1ii7	B-:min7	63.409	.	voice	1B- 1dd- 1ff 1aa-
=34	=34	=34	=34	=34	=34
1V7	E-:7	65.379	.	voice	1E- 1g 1b- 1dd-
=35	=35	=35	=35	=35	=35
1ii7	B-:min7	67.349	.	voice	1B- 1dd- 1ff 1aa-
=36	=36	=36	=36	=36	=36
1V7	E-:7	69.319	.	voice	1E- 1g 1b- 1dd-
=37	=37	=37	=37	=37	=37
4.ii7	B-:min7	71.288	newline	voice	4B- 4dd- 4ff 4aa-
4.Ib	A-:maj/3	72.273	.	voice	4a- 4C 4ee-
4IV	D-:maj	72.766	.	voice	4D- 4f 4a-
=38	=38	=38	=38	=38	=38
1II7b	B-:7/3	73.258	.	voice	1b- 1D 1ff 1aa-
=39	=39	=39	=39	=39	=39
1V7	E-:sus4(b7)	75.228	.	voice	1E- 1g 1b- 1dd-
=40	=40	=40	=40	=40	=40
1V7	E-:7	77.198	.	voice	1E- 1g 1b- 1dd-
=41	=41	=41	=41	=41	=41
*>C_bridge	*>C_bridge	*>C_bridge	*>C_bridge	*>C_bridge	*>C_bridge
1I	A-:maj	79.169	newline	voice	1A- 1cc 1ee-
=42	=42	=42	=42	=42	=42
1IVc	D-:maj(9)/5	81.149	.	voice	1d- 1f 1A-
=43	=43	=43	=43	=43	=43
1I	A-:maj	83.129	.	voice	1A- 1cc 1ee-
=44	=44	=44	=44	=44	=44
1IVc	D-:maj(9)/5	85.109	.	voice	1d- 1f 1A-
=45	=45	=45	=45	=45	=45
1I	A-:maj	87.089	newline	voice	1A- 1cc 1ee-
=46	=46	=46	=46	=46	=46
1IVc	D-:maj(9)/5	89.044	.	voice	1d- 1f 1A-
=47	=47	=47	=47	=47	=47
1I	A-:maj	90.999	.	voice	1A- 1cc 1ee-
=48	=48	=48	=48	=48	=48
1r	N	92.954	.	voice	1r
=49	=49	=49	=49	=49	=49
1I	A-:maj	94.909	newline	voice	1A- 1cc 1ee-
=50	=50	=50	=50	=50	=50
1ivc	D-:min/5	96.882	.	voice	1d- 1f- 1A-
=51	=51	=51	=51	=51	=51
2I	A-:maj	98.855	.	voice	2A- 2cc 2ee-
2I	A-:maj(9)	99.841	.	voice	2A- 2cc 2ee-
=52	=52	=52	=52	=52	=52
*E-:	*E-:	*	*	*	*E-:
1ii7	F:min7	100.827	.	voice	1F 1a- 1cc 1ee-
=53	=53	=53	=53	=53	=53
2V	B-:sus4(b7)	102.8	newline	voice	2B- 2dd 2ff
2V	B-:maj	103.802	.	voice	2B- 2dd 2ff
=54	=54	=54	=54	=54	=54
2ii7	F:min7	104.804	newline	voice	2F 2a- 2cc 2ee-
2iii7	G:min7	105.773	.	voice	2G 2b- 2dd 2ff
=55	=55	=55	=55	=55	=55
2ii7	F:min7	106.743	.	voice	2F 2a- 2cc 2ee-
2iii7	G:min7	107.713	.	voice	2G 2b- 2dd 2ff
=56	=56	=56	=56	=56	=56
2ii7	F:min7	108.683	.	voice	2F 2a- 2cc 2ee-
2iii7	G:min7	109.652	.	voice	2G 2b- 2dd 2ff
=57	=57	=57	=57	=57	=57
2ii7	F:min7	110.622	.	voice	2F 2a- 2cc 2ee-
2iii7	G:min7	111.592	.	voice	2G 2b- 2dd 2ff
=58	=58	=58	=58	=58	=58
1vi7	C:min7	112.562	newline	voice	1C 1e- 1g 1b-
=59	=59	=59	=59	=59	=59
1vi7	C:min7	114.527	newline	bass	1C 1e- 1g 1b-
=60	=60	=60	=60	=60	=60
1II	F:sus4(b7)	116.086	.	bass	1F 1a 1cc
=61	=61	=61	=61	=61	=61
1II	F:maj	117.645	.	bass	1F 1a 1cc
=62	=62	=62	=62	=62	=62
1II	F:sus4(b7)	119.204	.	bass	1F 1a 1cc
=63	=63	=63	=63	=63	=63
1V	B-:maj6	120.763	.	bass	1B- 1dd 1ff
=64	=64	=64	=64	=64	=64
1I	E-:maj	122.322	newline	strings	1E- 1g 1b-
=65	=65	=65	=65	=65	=65
1vi7	C:min7	124.285	.	strings	1C 1e- 1g 1b-
=66	=66	=66	=66	=66	=66
1ii7	F:min7	126.249	.	strings	1F 1a- 1cc 1ee-
=67	=67	=67	=67	=67	=67
2Ic	E-:maj/5	128.212	.	strings	2e- 2g 2B-
2V7	B-:7	129.194	.	strings	2B- 2dd 2ff 2aa-
=68	=68	=68	=68	=68	=68
1II7	F:sus4(b7)	130.176	newline	voice	1F 1a 1cc 1ee-
=69	=69	=69	=69	=69	=69
1V	B-:maj6	132.149	.	voice	1B- 1dd 1ff
=70	=70	=70	=70	=70	=70
1I	E-:maj	134.121	newline	strings	1E- 1g 1b-
=71	=71	=71	=71	=71	=71
1I	E-:maj	136.109	.	strings	1E- 1g 1b-
=72	=72	=72	=72	=72	=72
1vi7	C:min7	138.096	.	strings	1C 1e- 1g 1b-
=73	=73	=73	=73	=73	=73
1vi7	C:min7	140.083	.	strings	1C 1e- 1g 1b-
=74	=74	=74	=74	=74	=74
2ii	F:sus4(b7,9)	142.071	newline	voice	2F 2a- 2cc
2iie	F:sus4(b7,9)/2	143.061	.	voice	2F 2a- 2cc
=75	=75	=75	=75	=75	=75
2iie	F:sus4(b7,9)/2	144.051	.	voice	2F 2a- 2cc
2IV	A-:maj	145.04	.	voice	2A- 2cc 2ee-
=76	=76	=76	=76	=76	=76
*G:	*G:	*	*	*	*G:
1ii7	A:min7	146.03	.	voice	1A 1cc 1ee 1gg
=77	=77	=77	=77	=77	=77
1V7	D:7	148.01	.	voice	1D 1f# 1a 1cc
=78	=78	=78	=78	=78	=78
1I7	G:maj7	149.99	newline	voice	1G 1b 1dd 1ff#
=79	=79	=79	=79	=79	=79
2I7	G:maj7	151.966	.	voice	2G 2b 2dd 2ff#
4-I	G-:maj	152.954	.	voice	4r
4-VII	F:maj	153.448	.	voice	4F 4a 4cc
=80	=80	=80	=80	=80	=80
4VI	E:maj	153.942	.	voice	4E 4g# 4b
4-VI	E-:maj	154.436	.	voice	4E- 4g 4b-
4V	D:maj	154.93	.	voice	4D 4f# 4a
4-V	D-:maj	155.423	.	voice	4D- 4f 4a-
=81	=81	=81	=81	=81	=81
4IV	C:maj	155.917	.	voice	4C 4e 4g
4III	B:maj	156.411	.	voice	4B 4dd# 4ff#
4-III	B-:maj	156.905	.	voice	4B- 4dd 4ff
4II	A:maj	157.399	.	voice	4A 4cc# 4ee
=82	=82	=82	=82	=82	=82
*>A_interlude	*>A_interlude	*>A_interlude	*>A_interlude	*>A_interlude	*>A_interlude
*A-:	*A-:	*	*	*	*A-:
1I	A-:maj	157.893	newline	synthesizer	1A- 1cc 1ee-
=83	=83	=83	=83	=83	=83
1IVc	D-:maj(9)/5	159.841	.	synthesizer	1d- 1f 1A-
=84	=84	=84	=84	=84	=84
1I	A-:maj	161.789	.	synthesizer	1A- 1cc 1ee-
=85	=85	=85	=85	=85	=85
1IVc	D-:maj(9)/5	163.737	.	synthesizer	1d- 1f 1A-
=86	=86	=86	=86	=86	=86
*>B_chorus	*>B_chorus	*>B_chorus	*>B_chorus	*>B_chorus	*>B_chorus
1I	A-:maj	165.685	newline	voice	1A- 1cc 1ee-
=87	=87	=87	=87	=87	=87
2IV	D-:maj	167.685	.	voice	2D- 2f 2a-
2Ib	A-:maj/3	168.685	.	voice	2a- 2C 2ee-
=88	=88	=88	=88	=88	=88
2ii	B-:min	169.685	.	voice	2B- 2dd- 2ff
2Ib	A-:maj/3	170.685	.	voice	2a- 2C 2ee-
=89	=89	=89	=89	=89	=89
2IV	D-:maj	171.685	.	voice	2D- 2f 2a-
2V	E-:maj	172.685	.	voice	2E- 2g 2b-
=90	=90	=90	=90	=90	=90
1I	A-:maj	173.686	newline	voice	1A- 1cc 1ee-
=91	=91	=91	=91	=91	=91
2IV	D-:maj	175.686	.	voice	2D- 2f 2a-
2Ib	A-:maj/3	176.686	.	voice	2a- 2C 2ee-
=92	=92	=92	=92	=92	=92
2ii	B-:min	177.686	.	voice	2B- 2dd- 2ff
2Ib	A-:maj/3	178.686	.	voice	2a- 2C 2ee-
=93	=93	=93	=93	=93	=93
2IV	D-:maj	179.687	.	voice	2D- 2f 2a-
2V	E-:maj	180.687	.	voice	2E- 2g 2b-
=94	=94	=94	=94	=94	=94
*>_fadeout	*>_fadeout	*>_fadeout	*>_fadeout	*>_fadeout	*>_fadeout
1ii	B-:min	181.687	newline	voice	1B- 1dd- 1ff
=95	=95	=95	=95	=95	=95
1V	E-:maj	183.333	.	voice	1E- 1g 1b-
=96	=96	=96	=96	=96	=96
1ii	B-:min	184.98	.	voice	1B- 1dd- 1ff
=97	=97	=97	=97	=97	=97
1V	E-:maj	186.626	.	voice	1E- 1g 1b-
=98	=98	=98	=98	=98	=98
1ii	B-:min	188.272	.	voice	1B- 1dd- 1ff
=99	=99	=99	=99	=99	=99
1V	E-:maj	189.918	.	voice	1E- 1g 1b-
1r;	N	191.565	.	r	1r;
1r;	N	193.646	.	r	1r;
*-	*-	*-	*-	*-	*-
!!!OTL: The Best Disco In Town
!!!COC: The Ritchie Family
!!!BillboardChartDate: 1976/10/23
!!!BillboardPeak: 17
!!!BillboardWeeksOnChart: 20
!!!SampleTargetRank: 26
!!!SampleActualRank: 25
!!!SampleID#: 0925
!!!RDF**harmony: **recip + pitch class of root + harmonic quality
!!!RDF**harte: Chris Harte's syntax, used by MIREX
!!!RDF**phrase: newline = linebreak in original McGill transcription
!!!RDF**timestamp: McGill audio timestamp in seconds
!!!RDF**leadinstrument: original McGill primary instrumentation annotation
!!!RDT: 2017/01/12/
!!!ENC: Nathaniel Condit-Schultz
!!!EST: Awating manual error checking and editing.
